X:4
T:Prince Charlie
R:reel
D:Natalie MacMaster, LIVE, 2002
O:18th century Scotland
B:Original setting in Simon Fraser Collection
Z:Paul Stewart Cranford (P.S.C.), <http://www.cranfordpub.com>
L:1/8
Q:333
M:C|
K:Edor
F|E2 EF B2 Bc|d2 AG FDDF|E/E/E EF B2 Bc|dBAF GEEF|
EEEF B2 Bc|d2 AG FDDF|EFGA BBBg|fedf eee||
f|eBef g2 fe|fbag fdd^d|eBef g2 eg|bgaf e2 ef|
e^def geBg|fdAG FDDf|geBg (ef)dA|FdAF E2 E|]
